src/categories-icons-sprite/categories/svg-cat-hobby-optics.svg

<svg width="36" height="36" viewBox="0 0 36 36" fill="none" xmlns="http://www.w3.org/2000/svg">
<path class="p-55FBFF" d="M16.0608 21.2832L11.3957 25.9489L10.723 25.276L10.0488 24.6025L14.7146 19.937L16.0608 21.2832Z" fill="#B9DFFC"/>
<path class="p-00D9E0" d="M12.2733 25.071L11.6006 24.3981L15.3881 20.6111L16.0603 21.2833L12.2733 25.071Z" fill="#58ADE5"/>
<path class="p-00A6FF" d="M32.3511 21.2833C29.9203 23.7148 26.7263 24.9304 23.5331 24.9304C20.3391 24.9304 17.1459 23.7148 14.7143 21.2833C9.85174 16.4215 9.85174 8.50891 14.7143 3.64657C17.1459 1.21552 20.3391 0 23.5331 0C26.7263 0 29.9203 1.21552 32.3511 3.64657C37.2136 8.50891 37.2136 16.4215 32.3511 21.2833Z" fill="#65B3E7"/>
<path class="p-FFB74F" d="M14.2738 26.4789L11.896 28.8564L7.49297 33.2594C6.85844 33.8942 6.01422 34.2439 5.11596 34.2439C4.21795 34.2439 1.61762 35.6503 0.982841 35.0155C-0.327366 33.7048 -0.327862 31.5717 0.982841 30.261L9.51901 21.7249L11.8968 24.1024L14.2738 26.4789Z" fill="#A1D1FD"/>
<path class="p-006EF5" d="M32.3512 21.2833C29.9204 23.7148 26.7264 24.9304 23.5332 24.9304V0C26.7264 0 29.9204 1.21552 32.3512 3.64657C37.2138 8.50891 37.2138 16.4215 32.3512 21.2833Z" fill="#4D98CB"/>
<path class="p-FF9A00" d="M14.2734 26.4788L11.8956 28.8563L5.73645 35.0155C5.10191 35.6503 4.25769 36 3.35943 36C2.46142 36 1.6172 35.6503 0.982422 35.0155L11.8963 24.1023L14.2734 26.4788Z" fill="#65B3E7"/>
<path class="p-FFFFFF" d="M29.9297 18.8623C28.1659 20.6261 25.8499 21.5075 23.5331 21.5075C21.2163 21.5075 18.8995 20.6261 17.1357 18.8623C13.6084 15.3349 13.6084 9.59515 17.1357 6.06781C18.8995 4.30401 21.2163 3.42261 23.5331 3.42261C25.8491 3.42261 28.1659 4.30401 29.9297 6.06781C33.4571 9.59515 33.4571 15.3349 29.9297 18.8623Z" fill="#B9DFFC"/>
<path class="p-B8E0F9" d="M29.9298 18.8623C28.166 20.6261 25.85 21.5075 23.5332 21.5075V3.42261C25.8492 3.42261 28.166 4.30401 29.9298 6.06781C33.4572 9.59515 33.4572 15.3349 29.9298 18.8623Z" fill="#A1D1FD"/>
</svg>

<svg width="36" height="36" fill="none" xmlns="http://www.w3.org/2000/svg"><path class="p-55FBFF" d="M16.06 21.283l-4.664 4.666-.673-.673-.674-.674 4.666-4.665 1.346 1.346z" fill="#B9DFFC"/><path class="p-00D9E0" d="M12.273 25.071l-.672-.673 3.787-3.787.672.672-3.787 3.788z" fill="#58ADE5"/><path class="p-00A6FF" d="M32.351 21.283a12.43 12.43 0 01-8.818 3.647 12.432 12.432 0 01-8.819-3.647c-4.862-4.861-4.862-12.774 0-17.636A12.434 12.434 0 0123.534 0c3.192 0 6.386 1.216 8.817 3.647 4.863 4.862 4.863 12.775 0 17.636z" fill="#65B3E7"/><path class="p-FFB74F" d="M14.274 26.479l-2.378 2.377-4.403 4.403a3.339 3.339 0 01-2.377.985c-.898 0-3.498 1.406-4.133.772a3.366 3.366 0 010-4.755l8.536-8.536 2.378 2.377 2.377 2.377z" fill="#A1D1FD"/><path class="p-006EF5" d="M32.351 21.283a12.43 12.43 0 01-8.818 3.647V0c3.193 0 6.387 1.216 8.818 3.647 4.863 4.862 4.863 12.775 0 17.636z" fill="#4D98CB"/><path class="p-FF9A00" d="M14.273 26.479l-2.377 2.377-6.16 6.16A3.339 3.339 0 013.36 36a3.34 3.34 0 01-2.377-.984l10.914-10.914 2.377 2.377z" fill="#65B3E7"/><path class="p-FFFFFF" d="M29.93 18.862a9.017 9.017 0 01-6.397 2.646 9.019 9.019 0 01-6.397-2.646c-3.528-3.527-3.528-9.267 0-12.794a9.019 9.019 0 016.397-2.645c2.316 0 4.633.881 6.397 2.645 3.527 3.527 3.527 9.267 0 12.794z" fill="#B9DFFC"/><path class="p-B8E0F9" d="M29.93 18.862a9.017 9.017 0 01-6.397 2.646V3.422c2.316 0 4.633.881 6.397 2.645 3.527 3.527 3.527 9.267 0 12.794z" fill="#A1D1FD"/></svg>
